layouts/icon-pack/soulgem.svg

<?xml version="1.0" encoding="UTF-8"?>
<svg width="1200pt" height="1200pt" version="1.1" viewBox="0 0 1200 1200" xmlns="http://www.w3.org/2000/svg">
 <g fill="#fff">
  <path d="m574.73 1015c0.015625-4.6914-2.2266-9.1016-6.0234-11.859l-182.39-132.49c-6.5625-4.7734-10.445-12.395-10.453-20.508v-501.26c0-8.1211 3.8984-15.75 10.477-20.508l181.95-131.88c3.8047-2.7617 6.0625-7.1797 6.0703-11.883v-113.86c-0.011719-3.6406-1.375-7.1484-3.8281-9.8359-2.4531-2.6914-5.8203-4.375-9.4414-4.7227-3.625-0.34766-7.25 0.66406-10.168 2.8398l-263.32 195.63c-8.875 6.6211-14.094 17.051-14.062 28.125v633.59c-0.003906 11.035 5.2109 21.422 14.062 28.008l263.79 197.16c2.918 2.1875 6.543 3.207 10.172 2.8633s7-2.0273 9.4531-4.7266c2.4531-2.6953 3.8125-6.2109 3.8125-9.8555z"/>
  <path d="m773.86 377.46c-0.027344-9.8398-4.7695-19.066-12.75-24.82l-143.34-103.31c-5.2422-3.7891-11.543-5.8281-18.012-5.8281s-12.77 2.0391-18.012 5.8281l-142.5 103.27c-7.9805 5.8008-12.695 15.074-12.68 24.938v444.07c0.007812 9.8359 4.7109 19.074 12.656 24.867l142.83 103.76c5.2539 3.8047 11.574 5.8555 18.059 5.8555s12.805-2.0508 18.059-5.8555l142.97-103.73c7.9453-5.7461 12.656-14.945 12.68-24.75zm-191.34 3.6562-59.859 117.42c-10.219 20.062-40.5 12.797-40.5-9.7266v-66.258c0.007812-12.992 6.3828-25.156 17.062-32.555l51.961-36.094c18.352-12.82 41.461 7.3594 31.336 27.211z"/>
  <path d="m912.38 254.09-263.95-195.75c-2.918-2.1758-6.543-3.1875-10.168-2.8398-3.6211 0.34766-6.9883 2.0312-9.4414 4.7227-2.4531 2.6875-3.8164 6.1953-3.8281 9.8359v114.52c-0.003906 4.7188 2.2617 9.1523 6.0938 11.906l182.81 131.77c6.5859 4.7383 10.5 12.348 10.523 20.461l0.9375 250.38v0.9375l-0.9375 250.38c-0.027343 8.082-3.9102 15.668-10.453 20.414l-182.48 132.3c-3.8008 2.7656-6.0469 7.1836-6.0469 11.883v114.84c0.011718 3.6406 1.375 7.1484 3.8281 9.8359 2.4531 2.6914 5.8203 4.375 9.4414 4.7227 3.625 0.34766 7.25-0.66406 10.168-2.8398l263.6-196.64c8.8477-6.5938 14.059-16.977 14.062-28.008v-634.76c-0.003906-11.074-5.2539-21.492-14.156-28.078z"/>
 </g>
</svg>

<?xml version="1.0" encoding="UTF-8" standalone="no"?>
<!DOCTYPE svg PUBLIC "-//W3C//DTD SVG 1.1//EN" "http://www.w3.org/Graphics/SVG/1.1/DTD/svg11.dtd">
<svg width="100%" height="100%" viewBox="0 0 410 683" version="1.1" xmlns="http://www.w3.org/2000/svg" xmlns:xlink="http://www.w3.org/1999/xlink" xml:space="preserve" xmlns:serif="http://www.serif.com/" style="fill-rule:evenodd;clip-rule:evenodd;stroke-linejoin:round;stroke-miterlimit:2;">
    <g transform="matrix(1.33333,0,0,1.33333,-364.722,-73.9108)">
        <g transform="matrix(0.470138,0,0,0.470138,144.939,29.3719)">
            <path d="M574.73,1015C574.746,1010.31 572.503,1005.9 568.707,1003.14L386.317,870.651C379.754,865.878 375.872,858.256 375.864,850.143L375.864,348.883C375.864,340.762 379.762,333.133 386.341,328.375L568.291,196.495C572.095,193.733 574.353,189.315 574.361,184.612L574.361,70.752C574.349,67.111 572.986,63.604 570.533,60.916C568.08,58.225 564.713,56.541 561.091,56.193C557.466,55.846 553.841,56.857 550.923,59.033L287.603,254.663C278.728,261.284 273.509,271.714 273.541,282.788L273.541,916.378C273.537,927.413 278.752,937.8 287.603,944.386L551.393,1141.55C554.311,1143.73 557.936,1144.75 561.565,1144.41C565.194,1144.07 568.565,1142.38 571.019,1139.68C573.472,1136.99 574.831,1133.47 574.831,1129.83L574.73,1015Z" style="fill:white;fill-rule:nonzero;"/>
            <path d="M773.86,377.46C773.833,367.62 769.091,358.394 761.11,352.64L617.77,249.33C612.528,245.541 606.227,243.502 599.758,243.502C593.289,243.502 586.988,245.541 581.746,249.33L439.246,352.6C431.266,358.401 426.551,367.674 426.566,377.538L426.566,821.608C426.574,831.444 431.277,840.682 439.222,846.475L582.052,950.235C587.306,954.04 593.626,956.09 600.111,956.09C606.596,956.09 612.916,954.04 618.17,950.235L761.14,846.505C769.085,840.759 773.796,831.56 773.82,821.755L773.86,377.46ZM582.52,381.116L522.661,498.536C512.442,518.598 482.161,511.333 482.161,488.81L482.161,422.552C482.169,409.56 488.544,397.396 499.223,389.997L551.184,353.903C569.536,341.083 592.645,361.262 582.52,381.114L582.52,381.116Z" style="fill:white;fill-rule:nonzero;"/>
            <path d="M912.38,254.09L648.43,58.34C645.512,56.164 641.887,55.153 638.262,55.5C634.641,55.848 631.274,57.531 628.821,60.223C626.368,62.91 625.004,66.418 624.993,70.059L624.993,184.579C624.989,189.298 627.254,193.731 631.086,196.485L813.896,328.255C820.482,332.993 824.396,340.603 824.419,348.716L825.357,599.096L825.357,600.033L824.419,850.413C824.392,858.495 820.509,866.081 813.966,870.827L631.486,1003.13C627.686,1005.89 625.439,1010.31 625.439,1015.01L625.439,1129.85C625.451,1133.49 626.814,1137 629.268,1139.69C631.721,1142.38 635.088,1144.06 638.709,1144.41C642.334,1144.76 645.959,1143.75 648.877,1141.57L912.477,944.929C921.325,938.335 926.536,927.952 926.539,916.921L926.539,282.161C926.535,271.087 921.285,260.669 912.383,254.083L912.38,254.09Z" style="fill:white;fill-rule:nonzero;"/>
        </g>
    </g>
</svg>
